X:1
T:The Hag at the Churn
M:6/8
L:1/8
Q:80
C:Arr. by T. Tully
S:Jig
K:HP
|: {gef}e2d{g}e{AGAG}A2 | \
{gef}e2d{g}eag | \
{ef}e2d{g}e{AGAG}A2 |
{g}Bcd{g}Bcd :: \
{g}eaf{a}g3 | \
eag{a}Bcd |
{g}eaf{a}g2e | \
{gde}dBd{g}e{AGAG}A2 :|
